X:425
T: Der himmlische Jger (5-21), S. 40
N: P0695
O: Lothringen
S: MERKELBACH-PINCK, Angelika: Verklingende Weisen, Bd 5, Kassel 1962]
R: geistliches, religiöses Lied]
M: 4/4
L: 1/16
K: G
D4 | G4G4A4A4 | B2c2d4z4
G2B2 | d3ed4G2B2A4 | B4z8
G2B2 | d6d2d3cB2A2 | G3AB2d2A4
d3e | d4d2c2B4A4 | G4z8
G2B2 | d6d2d3cB2A2 | G3AB2d2A4
d3e | d4d2c2B4A4 | G4z8

